!!!Genre:	Plyeskun
!!!Mode:	Minor
!!!Listening/dance:	dance
!!!One_Mode:	yes
**kern
*I"P1
*clefG2
*k[b-e-]
*g:
*M2/4
*>A
=1
8b-L
8ddJ
(16ddLL
16cc)
(16cc
16b-JJ)
=2
(16ddLL
16cc)
(16cc
16b-JJ)
(16b-LL
16a)
(16a
16gJJ)
=3
8b-L
8ddJ
(16ddLL
16cc)
(16cc
16b-JJ)
*>A1
=4
(16b-LL
16a)
(16a
16gJJ)
8ggL
8ggJ
*>A2
=5:|!
(16b-LL
16a)
(16a
16gJJ)
4g
=6!|:
*>B
16ccLL
16dd
16ee-
16ddJJ
16ffLL
16ee-
16dd
16ee-JJ
=7
8ccL
8ccJ
4cc
=8
16b-LL
16cc
16dd
16ccJJ
16ddLL
16cc
16b-
16aJJ
=9
8b-L
8b-J
4b-
=10
16gLL
16a
16b-
16aJJ
16ccLL
16b-
16a
16b-JJ
=11
8gL
8gJ
4g
=12:|!
*>C
8dd
4gg
8dd
=13
8ffL
16ee-L
16ddJJ
4cc
=14
16b-LL
16cc
16dd
16b-JJ
8ccL
16b-L
16aJJ
=15
8gL
8b-
8dd
8ggJ
=16
8dd
4gg
8dd
=17
8ffL
16ee-L
16ddJJ
4cc
=18
16b-LL
16cc
16dd
16b-JJ
8ccL
16b-L
16aJJ
=19
4g
4g
==
*-
